img/icon-mask.svg

<svg width="38" height="40" viewBox="0 0 38 40" fill="none" xmlns="http://www.w3.org/2000/svg">
<path d="M19 1.25C9.16275 1.25 1.1875 9.645 1.1875 20C1.1875 30.355 9.16275 38.75 19 38.75C28.8372 38.75 36.8125 30.355 36.8125 20C36.8125 9.645 28.8372 1.25 19 1.25ZM2.82269 22.3044L7.90934 23.6369C7.88737 23.8894 7.866 24.1425 7.866 24.4194C7.86415 26.4795 8.3559 28.5068 9.29575 30.3137L6.73431 31.3275C4.61401 28.7914 3.25313 25.6522 2.82269 22.3044ZM19 37.1875C14.9316 37.1875 11.2094 35.61 8.34694 33.0087L10.4702 32.1556C12.5139 34.7962 15.5776 36.4794 19 36.4794C22.4224 36.4794 25.4861 34.7962 27.5304 32.1556L29.6537 33.0087C26.7918 35.6094 23.0696 37.1875 19 37.1875ZM9.35097 24.4188C9.35097 20.7994 11.5692 20.0725 15.1477 20.0725C15.8038 20.0725 16.4688 20.0963 17.1202 20.1194C18.373 20.1656 19.627 20.1656 20.8798 20.1194C21.5329 20.0963 22.1973 20.0725 22.8522 20.0725C26.432 20.0725 28.6496 20.7994 28.6496 24.4188C28.6496 30.2075 24.3206 34.9169 19 34.9169C13.6794 34.9169 9.35097 30.2075 9.35097 24.4188ZM31.2657 31.3269L28.7043 30.3131C29.6441 28.5061 30.1358 26.4788 30.134 24.4188C30.134 24.1419 30.1132 23.8888 30.0912 23.6362L35.1773 22.3038C34.7479 25.6519 33.3869 28.7914 31.2657 31.3269ZM29.567 21.52C28.1823 18.52 24.5907 18.5106 22.8522 18.5106C22.1807 18.5106 21.4991 18.5344 20.8299 18.5588C19.6108 18.6038 18.3904 18.6038 17.1713 18.5588C16.4971 18.5305 15.8225 18.5144 15.1477 18.5106C13.4092 18.5106 9.81825 18.5206 8.43363 21.52L2.67306 20.0212L2.67188 20C2.67188 16.3069 3.78813 12.8844 5.67863 10.0794C5.89653 10.3931 6.25753 10.67 6.41012 10.5294C7.35929 9.68594 8.47344 9.07318 9.67325 8.73473C10.8731 8.39627 12.129 8.34046 13.3517 8.57125C13.696 8.64187 14 7.30812 13.5826 7.22375C11.2569 6.78924 8.86042 7.25925 6.83941 8.54625C9.83191 5.03 14.1734 2.8125 19 2.8125C23.9133 2.8125 28.3237 5.11188 31.3191 8.73812C29.2671 7.3765 26.8062 6.86991 24.418 7.3175C24.0006 7.40188 24.3034 8.73625 24.6478 8.665C27.1225 8.1975 29.6691 8.915 31.5893 10.6231C31.7502 10.77 32.1421 10.4594 32.354 10.1281C34.292 13.0155 35.3311 16.4647 35.3281 20V20.0206L29.567 21.52Z" fill="#DC1E1E"/>
<path d="M22.018 12.5331C21.5644 12.6981 21.2224 12.7181 21.2806 12.9931C22.474 18.4756 27.3398 19.8469 30.9789 15.7287C31.16 15.5206 30.8732 15.3237 30.5591 14.94C27.6248 16.2619 23.753 14.9706 22.018 12.5331Z" fill="#DC1E1E"/>
<path d="M15.9832 12.5319C14.0707 15.2194 10.1038 16.1394 7.44325 14.9413C7.12916 15.3231 6.84119 15.5206 7.02228 15.7288C10.6614 19.8488 15.526 18.4756 16.7218 12.9931C16.7788 12.7181 16.438 12.6975 15.9832 12.5319Z" fill="#DC1E1E"/>
</svg>

<svg width="38" height="40" fill="none" xmlns="http://www.w3.org/2000/svg"><path d="M19 1.25C9.163 1.25 1.187 9.645 1.187 20S9.163 38.75 19 38.75 36.813 30.355 36.813 20 28.837 1.25 19 1.25zM2.823 22.304l5.086 1.333a8.792 8.792 0 00-.043.782c-.002 2.06.49 4.088 1.43 5.895l-2.562 1.014c-2.12-2.537-3.48-5.676-3.911-9.024zM19 37.188c-4.068 0-7.79-1.578-10.653-4.18l2.123-.852c2.044 2.64 5.108 4.323 8.53 4.323 3.422 0 6.486-1.683 8.53-4.323l2.124.853c-2.862 2.6-6.584 4.178-10.654 4.178zm-9.649-12.77c0-3.619 2.218-4.345 5.797-4.345.656 0 1.32.023 1.972.046 1.253.047 2.507.047 3.76 0 .653-.023 1.317-.046 1.972-.046 3.58 0 5.798.726 5.798 4.346 0 5.788-4.33 10.498-9.65 10.498s-9.649-4.71-9.649-10.498zm21.915 6.909l-2.562-1.014a12.763 12.763 0 001.43-5.894c0-.277-.02-.53-.043-.783l5.086-1.332c-.43 3.348-1.79 6.487-3.911 9.023zm-1.699-9.807c-1.385-3-4.976-3.01-6.715-3.01-.671 0-1.353.024-2.022.049-1.22.045-2.44.045-3.659 0a55.733 55.733 0 00-2.023-.048c-1.739 0-5.33.01-6.714 3.009l-5.76-1.499L2.671 20a17.71 17.71 0 013.007-9.92c.218.313.579.59.731.45a8.313 8.313 0 013.263-1.795 8.04 8.04 0 013.679-.164c.344.07.648-1.263.23-1.347A9.332 9.332 0 006.84 8.546C9.832 5.03 14.173 2.813 19 2.813c4.913 0 9.324 2.299 12.32 5.925a9.339 9.339 0 00-6.902-1.42c-.417.084-.115 1.418.23 1.347 2.474-.467 5.021.25 6.941 1.958.161.147.553-.164.765-.495 1.938 2.887 2.977 6.337 2.974 9.872v.02l-5.761 1.5z" fill="#DC1E1E"/><path d="M22.018 12.533c-.454.165-.796.185-.737.46 1.193 5.483 6.059 6.854 9.698 2.736.181-.208-.106-.405-.42-.789-2.934 1.322-6.806.03-8.541-2.407zM15.983 12.532c-1.912 2.687-5.88 3.607-8.54 2.41-.314.381-.602.579-.42.787 3.638 4.12 8.503 2.747 9.699-2.736.057-.275-.284-.296-.739-.461z" fill="#DC1E1E"/></svg>
